packages/xm_dkfz_net_site/Resources/Public/Icons/delete-bin.svg

<svg width="24" height="24" xmlns="http://www.w3.org/2000/svg" fill-rule="evenodd" clip-rule="evenodd"><path d="M19 24h-14c-1.104 0-2-.896-2-2v-17h-1v-2h6v-1.5c0-.827.673-1.5 1.5-1.5h5c.825 0 1.5.671 1.5 1.5v1.5h6v2h-1v17c0 1.104-.896 2-2 2zm0-19h-14v16.5c0 .276.224.5.5.5h13c.276 0 .5-.224.5-.5v-16.5zm-9 4c0-.552-.448-1-1-1s-1 .448-1 1v9c0 .552.448 1 1 1s1-.448 1-1v-9zm6 0c0-.552-.448-1-1-1s-1 .448-1 1v9c0 .552.448 1 1 1s1-.448 1-1v-9zm-2-7h-4v1h4v-1z"/></svg>

<svg xmlns="http://www.w3.org/2000/svg" width="24" height="24" fill-rule="evenodd" clip-rule="evenodd"><path d="M19 24H5a2 2 0 0 1-2-2V5H2V3h6V1.5C8 .67 8.67 0 9.5 0h5c.82 0 1.5.67 1.5 1.5V3h6v2h-1v17a2 2 0 0 1-2 2zm0-19H5v16.5c0 .28.22.5.5.5h13a.5.5 0 0 0 .5-.5V5zm-9 4a1 1 0 0 0-2 0v9a1 1 0 0 0 2 0V9zm6 0a1 1 0 0 0-2 0v9a1 1 0 0 0 2 0V9zm-2-7h-4v1h4V2z"/></svg>
